X:1
T:Title
%%score { 1 | ( 2 3 ) }
L:1/8
M:4/4
K:G
V:1 treble nm="Grand Piano"
V:2 bass 
V:3 bass 
V:1
 z4 z2[Q:1/4=100] D2 | G2 G2 G3 A | B2 c2 B3 G |[M:2/4] [FA]2 [FA]2 | [GB]2 [FA]2 |[M:3/4] G4 D2 | %6
[M:1/4] D2 |[M:4/4] G2 G2 G3 A | B2 c2 B3 G |[M:2/4] [FA]2 [FA]2 | B2 ^c2 |[M:3/4] [Fd]6 | %12
[M:1/4] z B |[M:4/4] d2 d2 d3 d | B2 d2 G3 G |[M:2/4] [FA][FA] [FA][FA] | [EG]2 [FA]2 | %17
[M:3/4] B4 d2 |[M:1/4] z B |[M:4/4] d2 d2 d3 d | B2 d2 G3 G |[M:2/4] [FA][FA] [FA][FA] | %22
 [GB]2 [CFA]2 |[M:3/4] [B,DG]6 |] %24
V:2
 z4 z2 [G,B,]2 | [G,B,D]2 [G,B,D]2 [G,B,D]3 [G,CD] | [G,DG]2 [G,EG]2 [G,DG]3[K:bass] [G,B,] | %3
[M:2/4] [D,D]2 [D,D]2 | [D,D]2 [D,C]2 |[M:3/4] D4 z2 |[M:1/4] [G,B,]2 | %7
[M:4/4] [G,B,D]2 [G,B,D]2 [G,B,D]3 [G,CD] | [G,DG]2 [G,EG]2 [G,DG]3[K:bass] [G,B,] | %9
[M:2/4] [D,D]2 [D,D]2 | [G,DG]2 [A,G]2 |[M:3/4][K:bass] [D,A,]6 |[M:1/4] z[K:treble] [G,G] | %13
[M:4/4] [G,B,G]2 [G,B,G]2 [G,B,G]3 [G,B,G] | [G,DG]2 [G,B,G]2[K:bass] [G,B,]3 [G,B,] | %15
[M:2/4] [D,D][D,D] [D,D][D,D] | [E,B,]2 [D,D]2 |[M:3/4][K:treble] D4 z2 |[M:1/4] z [G,G] | %19
[M:4/4] [G,B,G]2 [G,B,G]2 [G,B,G]3 [G,B,G] | [G,DG]2 [G,B,G]2[K:bass] [G,B,]3 [G,B,] | %21
[M:2/4] [D,D][D,D] [D,D][D,D] | [D,D]2 D,2 |[M:3/4] G,,6 |] %24
V:3
 x8 | x8 | x7[K:bass] x |[M:2/4] x4 | x4 |[M:3/4] [G,B,]6 |[M:1/4] x2 |[M:4/4] x8 | x7[K:bass] x | %9
[M:2/4] x4 | x4 |[M:3/4][K:bass] x6 |[M:1/4] x[K:treble] x |[M:4/4] x8 | x4[K:bass] x4 | %15
[M:2/4] x4 | x4 |[M:3/4][K:treble] [G,G]4- [G,B,G]2 |[M:1/4] x2 |[M:4/4] x8 | x4[K:bass] x4 | %21
[M:2/4] x4 | x4 |[M:3/4] x6 |] %24

